X:290
T: ALS NOAH AUS DEM KASTEN WAR
N: B0342
O: Europa, Mitteleuropa, Deutschland
R: Trink - Lied
M: 3/4
L: 1/16
K: B
F2 | B,3C=D2E2F2B2 | F8z2
F2 | F3=GF2E2=D2C2 | B,8z2
B2 | =A3BA2=G2F2E2 | =D8z2
B2 | =A3BA2=G2F2E2 | =D8z2
d2 | c3=dc2B2A2G2 | F4z2
B2B2B2 | =G2E2F6F2 | B,8z2
=d2 | c3=dc2B2A2G2 | F4z2
B2B2B2 | =G2E2F6F2 | B,8z2

@@@ Tune index: 2093
